!!!OTL: Liebeskummer.
!!!OTL-incipit: AM SONNTAG IN ALLER FRUEH
!!!ARE: Europa, Mitteleuropa, Deutschland, Lothringen
!!!SCT: Z1179
!!!TXL: @@DE
!!!YEM: Copyright 1995, estate of Helmut Schaffrath.
**kern	**text
*ICvox	*
*M4/4	*
*met(c)	*
*k[f#]	*
*G:	*
!LO:TX:a:t=Aus Lotharingen.	!
{4d	Am
=1	=1
4g	Sonntag,
8g	.
8a	am
4b/	Sonntag
8b/	.
8b/	in
=2	=2
8aL	al-
8gJ	.
8aL	-ler
8bJ	.
4g}	Früh',
{4b/	da
=3	=3
8b	ſchicket
8a	.
8b	mir
8cc/	mein
4.dd/	Schatʒ
8dd/	'nen
=4	=4
8cc/L	trau-
8bJ	.
8cc/	-ri-
8dd/	-gen
4b/}	Brief,
{4dd/	er
=5	=5
8b/	will
8dd/	mich
8dd/	nicht
8dd/	ver-
8dd/L	-laſ-
8ccJ	.
8cc/	-ſen
8cc/	in
=6	=6
8b/	al-
8b/	-ler
8dd/	meiner
8b/	.
4.a}	Noth,
{8d	er
=7	=7
8b/	will
8b/	mich
8cc/	treulich
8cc/	.
4dd/	lie-
8gg/	-ben
8cc/	bis
=8	=8
4b/	in
4a	den
4g;}	Tod.
==	==
!!!AGN: Liebes - Lied
!!!ONB: ESAC (Essen Associative Code) Database: ZUCCAL
!!!AMT: simple quadruple
!!!AIN: vox
!!!EED: Helmut Schaffrath
!!!EEV: 1.0
!!!GTL: V. Lieder der Minne.
!!!URL-scan: https://www.digitale-sammlungen.de/de/view/bsb11160573?page=373
!!!ENC: Anna Maria Matuszewska
!!!EEV: 2025/02/05
*-	*-
